icons/afdesign.svg

<svg width="16" height="16" viewBox="0 0 16 16" fill="none" xmlns="http://www.w3.org/2000/svg">
<path d="M9.5618 3L7.97115 5.76271L10.5392 10H14V4C14 3.44772 13.5523 3 13 3H9.5618Z" fill="#399EE7"/>
<path d="M8.378 3L4 10.5L6.20455 14H3C2.44772 14 2 13.5523 2 13V11L6.5 3H8.378Z" fill="#399EE7"/>
<path d="M7.3444 14H13C13.5523 14 14 13.5523 14 13V11H5.41583L7.3444 14Z" fill="#399EE7"/>
<path d="M5.5315 10L7.40148 6.75214L9.36988 10H5.5315Z" fill="#399EE7"/>
</svg>

<svg xmlns="http://www.w3.org/2000/svg" width="16" height="16" fill="none"><path fill="#399EE7" d="m9.562 3-1.59 2.763L10.538 10H14V4a1 1 0 0 0-1-1H9.562ZM8.378 3 4 10.5 6.205 14H3a1 1 0 0 1-1-1v-2l4.5-8h1.878Z"/><path fill="#399EE7" d="M7.344 14H13a1 1 0 0 0 1-1v-2H5.416l1.928 3ZM5.532 10l1.87-3.248L9.37 10H5.532Z"/></svg>
